packages/styles/img/icons/social-reddit.svg

<svg viewBox="0 0 32 32" fill="none" xmlns="http://www.w3.org/2000/svg">
<path d="M20.8669 8L17.5542 7.52676C17.4492 7.51175 17.3507 7.58144 17.3298 7.68552L16.3669 12.5" stroke="#201E1E" stroke-linecap="round"/>
<path d="M23.8669 18C23.8669 19.4508 23.0346 20.8137 21.589 21.8342C20.1447 22.8536 18.1232 23.5 15.8669 23.5C13.6106 23.5 11.5892 22.8536 10.1449 21.8342C8.69929 20.8137 7.86694 19.4508 7.86694 18C7.86694 16.5492 8.69929 15.1863 10.1449 14.1658C11.5892 13.1464 13.6106 12.5 15.8669 12.5C18.1232 12.5 20.1447 13.1464 21.589 14.1658C23.0346 15.1863 23.8669 16.5492 23.8669 18Z" stroke="#201E1E"/>
<circle cx="12.8669" cy="16.5" r="1.5" fill="#201E1E"/>
<circle cx="18.8669" cy="16.5" r="1.5" fill="#201E1E"/>
<path d="M23.867 17.5C23.867 17.5 24.7319 17.24 25.1524 16.6368C25.3236 16.3912 25.4455 16.1182 25.5113 15.8335C25.5771 15.5489 25.5854 15.2581 25.5357 14.9777C25.486 14.6973 25.3793 14.4329 25.2217 14.1995C25.0641 13.9661 24.8588 13.7683 24.6173 13.6174C24.3758 13.4665 24.103 13.3655 23.8143 13.3201C23.5257 13.2747 23.227 13.2858 22.9352 13.3528C22.6433 13.4198 22.1175 13.8308 21.867 14L23.3135 15.4878L23.867 17.5Z" fill="#201E1E"/>
<path d="M10.6793 14.004C10.4066 13.8466 9.90134 13.2555 9.28496 13.1946C8.97896 13.1429 8.67079 13.1481 8.37804 13.2099C8.08529 13.2717 7.81368 13.389 7.57874 13.555C7.34379 13.7209 7.1501 13.9324 7.00873 14.1773C6.86736 14.4221 6.78108 14.6956 6.75481 14.982C6.72854 15.2685 6.76279 15.5624 6.85562 15.8468C6.94845 16.1312 7.09803 16.4007 7.29582 16.6399C7.49361 16.879 8.01475 16.9067 8.28739 17.0641L9.0849 15.3759L10.6793 14.004Z" fill="#201E1E"/>
<circle cx="21.8669" cy="8.5" r="1.5" fill="#201E1E"/>
<path d="M12.8669 20C13.8669 20.5 15.8669 21.5 18.8669 20" stroke="#201E1E" stroke-linecap="round"/>
<circle cx="16" cy="16" r="15.5" stroke="#201E1E"/>
</svg>

<svg xmlns="http://www.w3.org/2000/svg" fill="none" stroke="#000" stroke-linejoin="round" viewBox="0 0 32 32">
  <path d="m20.867 8-3.313-.473a.2.2 0 0 0-.224.159l-.963 4.814m7.5 5.5c0 1.45-.832 2.814-2.278 3.834-1.444 1.02-3.466 1.666-5.722 1.666-2.256 0-4.278-.646-5.722-1.666-1.446-1.02-2.278-2.383-2.278-3.834 0-1.45.832-2.814 2.278-3.834 1.444-1.02 3.466-1.666 5.722-1.666 2.256 0 4.278.646 5.722 1.666 1.446 1.02 2.278 2.383 2.278 3.834Z"/>
  <circle cx="12.867" cy="16.5" r="1.5" fill="#000" stroke="none"/>
  <circle cx="18.867" cy="16.5" r="1.5" fill="#000" stroke="none"/>
  <path fill="#000" stroke="none" d="M23.867 17.5s.865-.26 1.285-.863c.172-.246.293-.519.36-.803a2.14 2.14 0 0 0 .024-.856 2.017 2.017 0 0 0-.919-1.36 2.14 2.14 0 0 0-.803-.298 2.32 2.32 0 0 0-.879.033c-.292.067-.817.478-1.068.647l1.447 1.488.553 2.012ZM10.68 14.004c-.273-.157-.779-.748-1.395-.81a2.433 2.433 0 0 0-.907.016 2.165 2.165 0 0 0-.8.345 1.963 1.963 0 0 0-.823 1.427c-.026.287.008.58.1.865.093.284.243.554.44.793.199.239.72.267.992.424l.798-1.688 1.594-1.372Z"/>
  <circle cx="21.867" cy="8.5" r="1.5" fill="#000" stroke="none"/>
  <path d="M12.867 20c1 .5 3 1.5 6 0"/>
  <circle cx="16" cy="16" r="15.5"/>
</svg>
